X: 1
T: OLD TEMPLE HOUSE -- REEL
B: Ryan's Mammoth Collection of Fiddle Tunes
R: reel
M: C|
L: 1/8
Z: Contributed 20010523135002 by John Chambers jc:trillian.mit.edu
K: Em
 vE2GE BEGE | D2FD ADFD | E2GA BAGA | BdBA BEE2 \
| E2GE BEGE | D2FD ADFD | E2GA BAGA | BdBA BEE2 :|
|: g2dg g2eg | fddf fddf | gfeg fgaf | edde fee2 \
|  gfef gfeg | fddf fddf | efge afgd | dBAc BEE2 :|
